remix/Media/polaroid-line.svg

<svg viewBox="0 0 24 24" fill="currentColor" xmlns="http://www.w3.org/2000/svg"><path d="M21 6H19V5H5V19H19V18H21V20C21 20.5523 20.5523 21 20 21H4C3.44772 21 3 20.5523 3 20V4C3 3.44772 3.44772 3 4 3H20C20.5523 3 21 3.44772 21 4V6ZM6 6H8V9H6V6ZM15 16C17.2091 16 19 14.2091 19 12C19 9.79086 17.2091 8 15 8C12.7909 8 11 9.79086 11 12C11 14.2091 12.7909 16 15 16ZM15 18C11.6863 18 9 15.3137 9 12C9 8.68629 11.6863 6 15 6C18.3137 6 21 8.68629 21 12C21 15.3137 18.3137 18 15 18ZM15 14C13.8954 14 13 13.1046 13 12C13 10.8954 13.8954 10 15 10C16.1046 10 17 10.8954 17 12C17 13.1046 16.1046 14 15 14Z"/></svg>

<svg viewBox="0 0 24 24" xmlns="http://www.w3.org/2000/svg"><path fill="none" d="M0 0h24v24H0Z"/><path d="M21 6h-2V5H5v14h14v-1h2v2 0c0 .55-.45 1-1 1H4v0c-.56 0-1-.45-1-1V4v0c0-.56.44-1 1-1h16v0c.55 0 1 .44 1 1v2ZM6 6h2v3H6V6Zm9 10v0c2.2 0 4-1.8 4-4 0-2.21-1.8-4-4-4v0c-2.21 0-4 1.79-4 4 0 2.2 1.79 4 4 4Zm0 2v0c-3.32 0-6-2.69-6-6 0-3.32 2.68-6 6-6v0c3.31 0 6 2.68 6 6 0 3.31-2.69 6-6 6Zm0-4v0c-1.11 0-2-.9-2-2 0-1.11.89-2 2-2v0c1.1 0 2 .89 2 2 0 1.1-.9 2-2 2Z"/></svg>
